!!!SOCIAL_FUNCTION:	songs of the drum religion
!!!PDT:	1932
!!!OTL: No_92_Song_for_Head_Singer_Stake_of_Drum.krn
!!!REG: Wisconsin
!!!LANG: Non-Tone
!!!LING_GROUP: Algonquin
**kern
*staff1
=1-
*clefF4
*k[f#]
*M2/4
16e\LK
8.e\J
8.e\L
16e\Jk
=2
4e\
4B\
=3
16B\LK
8.B\J
8.B\L
16B\Jk
=4
4B\
4E\
=5
16e\LK
8.e\J
8.e\L
16e\Jk
=6
4e\
4B\
=7
16B\LK
8.B\J
8.B\L
16e\Jk
=8
4B\
4A\
=9
16B\LK
8.G\J
8.G\L
16G\Jk
=10
4G\
8G\
8r
=11
16B\LK
8E\
16G\Jk
8G\L
16B\L
16G\JJ
=12||
*M3/4
8.E\L
16E\Jk
4E\
8.E\L
16E\Jk
=13||
*M2/4
2E\
=14
8E\
8r
8E\L
8E\J
=15||
*M3/4
8.B\L
16B\Jk
8B\L
8A\J
4G\
=16||
*M2/4
4B\
4G\
=17
4E\
8E\
8r
=18||
*M3/4
16G\LK
8.E\J
8B\L
8A\J
4G\
=19||
*M2/4
4E\
8.E\L
16E\Jk
=20
2E\
=21
8E\
8r
4r
==
*-
